fs/bin_full_24_filled.svg

<svg viewBox="0 0 24 24" fill="none" xmlns="http://www.w3.org/2000/svg" height="1em" width="1em">
  <path d="M17.1556 3.38098C17.504 3.15699 17.6049 2.69295 17.3809 2.34452C17.1569 1.9961 16.6929 1.89522 16.3444 2.11921L2.34443 11.1192C2.12976 11.2572 2 11.4949 2 11.7501V18.7501C2 20.545 3.45507 22.0001 5.25 22.0001H18.75C20.5449 22.0001 22 20.545 22 18.7501V11.7501C22 11.3359 21.6642 11.0001 21.25 11.0001H21V7.75009C21 6.78359 20.2165 6.00009 19.25 6.00009H16.25C15.2835 6.00009 14.5 6.78359 14.5 7.75009V8.50009H11.25C10.2835 8.50009 9.5 9.28359 9.5 10.2501V11.0001H5.30361L17.1556 3.38098ZM14.5 10.0001V11.0001H11V10.2501C11 10.112 11.1119 10.0001 11.25 10.0001H14.5ZM19.5 11.0001H16V7.75009C16 7.61202 16.1119 7.50009 16.25 7.50009H19.25C19.3881 7.50009 19.5 7.61202 19.5 7.75009V11.0001Z" fill="#212121"/>
</svg>

<svg viewBox="0 0 24 24" fill="none" xmlns="http://www.w3.org/2000/svg" height="1em" width="1em">
  <path d="M17.156 3.381a.75.75 0 0 0-.812-1.262l-14 9A.75.75 0 0 0 2 11.75v7A3.25 3.25 0 0 0 5.25 22h13.5A3.25 3.25 0 0 0 22 18.75v-7a.75.75 0 0 0-.75-.75H21V7.75A1.75 1.75 0 0 0 19.25 6h-3a1.75 1.75 0 0 0-1.75 1.75v.75h-3.25a1.75 1.75 0 0 0-1.75 1.75V11H5.304l11.852-7.619Zm-2.656 6.62v1H11v-.75a.25.25 0 0 1 .25-.25h3.25Zm5 1H16V7.75a.25.25 0 0 1 .25-.25h3a.25.25 0 0 1 .25.25V11Z" fill="#212121"/>
</svg>
